!!!COM: Corelli, Arcangelo
!!!OTL: 
!!!ONM: Opus 6, No. 12
!!!OMV: 5
!!!CDT: 1653/2/17/-1713/1/8/
!!!OCY: Italia
**kern	**kern	**kern	**kern	**kern	**kern	**kern
*clefC	*clefG	*clefG	*clefG	*clefC	*clefG	*clefG
*k[b-]	*k[b-]	*k[b-]	*k[b-]	*k[b-]	*k[b-]	*k[b-]
*F:	*F:	*F:	*F:	*F:	*F:	*F:
*M6/8	*M6/8	*M6/8	*M6/8	*M6/8	*M6/8	*M6/8
2r	2r	2r	2r	2r	2r	2r
8r	8r	8r	8r	8r	8r	8r
8r	8r	8r	8r	8r	8r	8cc
=1	=1	=1	=1	=1	=1	=1
2.r	2.r	2.r	2.r	2.f	2.r	8ff
.	.	.	.	.	.	8gg
.	.	.	.	.	.	8ee
.	.	.	.	.	.	8.ff
.	.	.	.	.	.	16ee
.	.	.	.	.	.	8ff
=2	=2	=2	=2	=2	=2	=2
4.E	4.c	4.cc	4.gg	2.e	4.cc	4gg
.	.	.	.	.	.	8cc
4.r	4.r	4.r	4.r	.	4.r	4e
.	.	.	.	.	.	8cc
=3	=3	=3	=3	=3	=3	=3
2.r	2.r	2.r	2.r	4.e	2.r	8gg
.	.	.	.	.	.	8aa
.	.	.	.	.	.	8ff
.	.	.	.	4.c	.	8.gg
.	.	.	.	.	.	16ff
.	.	.	.	.	.	8gg
=4	=4	=4	=4	=4	=4	=4
4.F	4.f	4.cc	4.aa	2.F	4.cc	4aa
.	.	.	.	.	.	8cc
4.r	4.r	4.r	4.r	.	4.r	4f
.	.	.	.	.	.	8cc
=5	=5	=5	=5	=5	=5	=5
2.r	2.r	2.r	2.r	2.f	2.r	8aa
.	.	.	.	.	.	8gg
.	.	.	.	.	.	8ff
.	.	.	.	.	.	8aa
.	.	.	.	.	.	8gg
.	.	.	.	.	.	8ff
=6	=6	=6	=6	=6	=6	=6
4.E	4.c	4.cc	4.gg	4.e	4.cc	8gg
.	.	.	.	.	.	8ff
.	.	.	.	.	.	8ee
4r	4r	4r	4r	4r	4r	8gg
.	.	.	.	.	.	8ff
8E	8cc	8gg	8ee	8E	8gg	8ee
=7	=7	=7	=7	=7	=7	=7
4.F	4.a	8ff	8dd	4.F	8ff	8dd
.	.	8gg	8ee	.	8gg	8ee
.	.	8ee	8cc	.	8ee	8cc
4.G	4r	4.dd	4g	4.G	4.dd	8g
.	.	.	.	.	.	8cc
.	8g	.	8b	.	.	8b
=8	=8	=8	=8	=8	=8	=8
4.C	4.e	4.cc	4.c	4.c	4.cc	4.c
4.r	4.r	4.r	4.r	4.B-	4.r	4r
.	.	.	.	.	.	8ccc
=9	=9	=9	=9	=9	=9	=9
2.r	2.r	2.r	2.r	2.A	2.r	8ccc
.	.	.	.	.	.	8aa
.	.	.	.	.	.	8bb-
.	.	.	.	.	.	8ccc
.	.	.	.	.	.	8aa
.	.	.	.	.	.	8ccc
=10	=10	=10	=10	=10	=10	=10
4.D	4.f	4.ff	4.ccc	2.d	4.ff	4ccc
.	.	.	.	.	.	8ff
4.r	4.r	4.r	4.r	.	4.r	4ff
.	.	.	.	.	.	8bb-
=11	=11	=11	=11	=11	=11	=11
2.r	2.r	2.r	2.r	2.G	2.r	8bb-
.	.	.	.	.	.	8ccc
.	.	.	.	.	.	8aa
.	.	.	.	.	.	8bb-
.	.	.	.	.	.	8ccc
.	.	.	.	.	.	8aa
=12	=12	=12	=12	=12	=12	=12
4.C	4.c	4.ee	4.bb-	2.c	4.ee	4bb-
.	.	.	.	.	.	8ee
4.r	4.r	4.r	4.r	.	4.r	4ee
.	.	.	.	.	.	8aa
=13	=13	=13	=13	=13	=13	=13
2.r	2.r	2.r	2.r	2.F	2.r	8aa
.	.	.	.	.	.	8ff
.	.	.	.	.	.	8gg
.	.	.	.	.	.	8aa
.	.	.	.	.	.	8ff
.	.	.	.	.	.	8aa
=14	=14	=14	=14	=14	=14	=14
4.BB-	4.d	4.dd	4.aa	2.B-	4.dd	4aa
.	.	.	.	.	.	8dd
4.r	4.r	4.r	4.r	.	4.r	8dd
.	.	.	.	.	.	8ee
.	.	.	.	.	.	8ff
=15	=15	=15	=15	=15	=15	=15
2.r	2.r	2.r	2.r	2.B	2.r	8gg
.	.	.	.	.	.	8aa
.	.	.	.	.	.	8ff
.	.	.	.	.	.	8gg
.	.	.	.	.	.	8aa
.	.	.	.	.	.	8ff
=16	=16	=16	=16	=16	=16	=16
4.C	4.c	4.g	4.ee	4.c	4.g	4.ee
4.r	4.r	4.r	4.r	4r	4.r	4r
.	.	.	.	8A	.	8cc
=17	=17	=17	=17	=17	=17	=17
2.r	2.r	2.r	2.r	4.B-	2.r	8dd
.	.	.	.	.	.	8cc
.	.	.	.	.	.	8dd
.	.	.	.	4r	.	4B-
.	.	.	.	8B-	.	8dd
=18	=18	=18	=18	=18	=18	=18
2.r	2.r	2.r	2.r	4.c	2.r	4ee
.	.	.	.	.	.	8g
.	.	.	.	4r	.	4c
.	.	.	.	8c	.	8ee
=19	=19	=19	=19	=19	=19	=19
2.r	2.r	2.r	2.r	4.d	2.r	8ff
.	.	.	.	.	.	8ee
.	.	.	.	.	.	8ff
.	.	.	.	4r	.	4d
.	.	.	.	8d	.	8ff
=20	=20	=20	=20	=20	=20	=20
2.r	2.r	2.r	2.r	4.e	2.r	4gg
.	.	.	.	.	.	8cc
.	.	.	.	4r	.	4e
.	.	.	.	8e	.	8gg
=21	=21	=21	=21	=21	=21	=21
4.F	4.a	4.cc	8aa	4.F	4.cc	8aa
.	.	.	8gg	.	.	8gg
.	.	.	8ff	.	.	8ff
4.G	4.g	4.ee	8bb-	4.G	4.ee	8bb-
.	.	.	8aa	.	.	8aa
.	.	.	8gg	.	.	8gg
=22	=22	=22	=22	=22	=22	=22
4.A	4.f	4.ff	4ccc	4.A	4.ff	4ccc
.	.	.	8cc	.	.	8cc
4r	4r	4r	[4.ff	4r	4r	[4.ff
8A	8a	8cc	.	8A	8cc	.
=23	=23	=23	=23	=23	=23	=23
8B-	4g	8dd	8ff]	8B-	8dd	8ff]
8A	.	8cc	8gg	8A	8cc	8gg
8B-	8dd	8dd	8ff	8B-	8dd	8ff
8c	4cc	4g	8cc	8c	4g	8cc
8B-	.	.	8ff	8B-	.	8ff
8c	8c	8cc	8ee	8c	8cc	8ee
=24	=24	=24	=24	=24	=24	=24
4.F	4.c	4.a	4.ff	4.F	4.a	4.ff
4.r	4.r	4.r	4.r	4r	4.r	4r
.	.	.	.	8A	.	8cc
=25	=25	=25	=25	=25	=25	=25
2.r	2.r	2.r	2.r	8B-	2.r	8dd
.	.	.	.	8A	.	8cc
.	.	.	.	8B-	.	8dd
.	.	.	.	8B-	.	8dd
.	.	.	.	8A	.	8cc
.	.	.	.	8B-	.	8dd
=26	=26	=26	=26	=26	=26	=26
2.r	2.r	2.r	2.r	8c	2.r	8ee
.	.	.	.	8B-	.	8dd
.	.	.	.	8c	.	8ee
.	.	.	.	8c	.	8ee
.	.	.	.	8B-	.	8dd
.	.	.	.	8c	.	8ee
=27	=27	=27	=27	=27	=27	=27
2.r	2.r	2.r	2.r	8d	2.r	8ff
.	.	.	.	8c	.	8ee
.	.	.	.	8d	.	8ff
.	.	.	.	8d	.	8ff
.	.	.	.	8c	.	8ee
.	.	.	.	8d	.	8ff
=28	=28	=28	=28	=28	=28	=28
2.r	2.r	2.r	2.r	8e	2.r	8gg
.	.	.	.	8d	.	8ff
.	.	.	.	8e	.	8gg
.	.	.	.	8e	.	8gg
.	.	.	.	8d	.	8ff
.	.	.	.	8e	.	8gg
=29	=29	=29	=29	=29	=29	=29
4.F	4.a	4.cc	8aa	4.F	4.cc	8aa
.	.	.	8gg	.	.	8gg
.	.	.	8ff	.	.	8ff
4.G	4.g	4.ee	8bb-	4.G	4.ee	8bb-
.	.	.	8aa	.	.	8aa
.	.	.	8gg	.	.	8gg
=30	=30	=30	=30	=30	=30	=30
4.A	4.f	4.ff	4ccc	4.A	4.ff	4ccc
.	.	.	8cc	.	.	8cc
4r	4r	4r	[4.ff	4r	4r	[4.ff
8A	8a	8cc	.	8A	8cc	.
=31	=31	=31	=31	=31	=31	=31
8B-	4g	8dd	8ff]	8B-	8dd	8ff]
8A	.	8cc	8gg	8A	8cc	8gg
8B-	8dd	8dd	8ff	8B-	8dd	8ff
8c	4cc	4g	8cc	8c	4g	8cc
8B-	.	.	8ff	8B-	.	8ff
8c	8c	8cc	8ee	8c	8cc	8ee
=32	=32	=32	=32	=32	=32	=32
4.F	4.c	4.a	4.ff	4.F	4.a	4.ff
[4.BB-	4r	4r	4r	[4.BB-	4r	4r
.	8f	8f	8dd	.	8f	8dd
=33	=33	=33	=33	=33	=33	=33
4.BB-]	4.cc	4.g	4.e	4.BB-]	4.g	4.e
4.AA	4r	4r	4r	4.AA	4r	4r
.	8f	8a	8cc	.	8a	8cc
=34	=34	=34	=34	=34	=34	=34
4.BB-	4f	8d	8b-	4.BB-	8d	8b-
.	.	8e	8cc	.	8e	8cc
.	8dd	8f	8a	.	8f	8a
4.C	4cc	4c	4g	4.C	4c	4g
.	8c	8e	8cc	.	8e	8cc
=35	=35	=35	=35	=35	=35	=35
[4.FF	[4.c	[4.f	[4.a	[4.FF	[4.f	[4.a
4FF]	4c]	4f]	4a]	4FF]	4f]	4a]
8r	8r	8r	8r	8r	8r	8r
=36	=36	=36	=36	=36	=36	=36
2.r	2.r	2.r	2.r	4.D	2.r	4aa
.	.	.	.	.	.	8dd
.	.	.	.	4.d	.	4ff
.	.	.	.	.	.	8aa
=37	=37	=37	=37	=37	=37	=37
2.r	2.r	2.r	2.r	4.c#	2.r	4ee
.	.	.	.	.	.	8aa
.	.	.	.	4.A	.	4ee
.	.	.	.	.	.	8a
=38	=38	=38	=38	=38	=38	=38
4.d	4.a	4ff	4aa	4.d	4ff	4aa
.	.	8a	8dd	.	8a	8dd
4.D	4.a	8dd	8ff	4.D	8dd	8ff
.	.	8ee	8gg	.	8ee	8gg
.	.	8dd	8aa	.	8dd	8aa
=39	=39	=39	=39	=39	=39	=39
4.A	4.a	4.cc#	4.ee	2.A	4.cc#	4.ee
4.r	4.r	4.r	4.r	.	4.r	4.a
=40	=40	=40	=40	=40	=40	=40
2.r	2.r	2.r	2.r	2.F#	2.r	4aa
.	.	.	.	.	.	8dd
.	.	.	.	.	.	4dd
.	.	.	.	.	.	8dd
=41	=41	=41	=41	=41	=41	=41
2.r	2.r	2.r	2.r	2.G	2.r	2bb-
.	.	.	.	.	.	8aa
.	.	.	.	.	.	8gg
=42	=42	=42	=42	=42	=42	=42
4d	4d	4aa	4ff#	4d	4aa	8ff#
.	.	.	.	.	.	8dd
8c	8r	8bb-	8gg	8c	8bb-	8gg
4d	4d	4.aa	8dd	4d	4.aa	8dd
.	.	.	8gg	.	.	8gg
8D	8r	.	8ff#	8D	.	8ff#
=43	=43	=43	=43	=43	=43	=43
4.G	4.d	4.gg	4.gg	2.G	4.gg	[2gg
4.r	4.r	4.r	4.r	.	4.r	.
.	.	.	.	.	.	8gg]
.	.	.	.	.	.	8aa
=44	=44	=44	=44	=44	=44	=44
2.r	2.r	2.r	2.r	4.G	2.r	4bb-
.	.	.	.	.	.	8bb-
.	.	.	.	4.F	.	4bb-
.	.	.	.	.	.	8aa
=45	=45	=45	=45	=45	=45	=45
2.r	2.r	2.r	2.r	4.E	2.r	4.gg#
.	.	.	.	4C	.	4aa
.	.	.	.	8D	.	8bb
=46	=46	=46	=46	=46	=46	=46
4E	4e	4bb	4gg#	4E	4bb	8gg#
.	.	.	.	.	.	8ee
8D	8r	8ccc	8aa	8D	8ccc	8aa
4E	4e	4.bb	8ee	4E	4.bb	8ee
.	.	.	8aa	.	.	8aa
8EE	8r	.	8gg#	8EE	.	8gg#
=47	=47	=47	=47	=47	=47	=47
4.AA	4.e	4.aa	[2aa	4.AA	4.aa	[2aa
4.C#	4r	4.ee	.	4.C#	4.ee	.
.	.	.	8aa]	.	.	8aa]
.	8a	.	8gg	.	.	8gg
=48	=48	=48	=48	=48	=48	=48
4.D	4.a	4.a	4ff	4.D	4.a	4ff
.	.	.	8a	.	.	8a
4r	4r	4.ff	4dd	4r	4.ff	4dd
8D	8dd	.	8ff	8D	.	8ff
=49	=49	=49	=49	=49	=49	=49
4E	4.b	4r	4g#	4E	4r	4g#
8G#	.	8e	8ee	8G#	8e	8ee
4A	4r	4.a	4cc	4A	4.a	4cc
8D	8f	.	8b	8D	.	8b
=50	=50	=50	=50	=50	=50	=50
4.E	4.e	4r	8cc	4.E	4r	8cc
.	.	.	8b	.	.	8b
.	.	8dd	8a	.	8dd	8a
4.EE	4.e	8cc	4e	4.EE	8cc	4e
.	.	8dd	.	.	8dd	.
.	.	8b	8g#	.	8b	8g#
=51	=51	=51	=51	=51	=51	=51
4.AA	4.e	4.a	4.A	4.AA	4.a	4.A
4.r	4.r	4.r	4.r	4.r	4.r	4r
.	.	.	.	.	.	8cc
=52	=52	=52	=52	=52	=52	=52
2.r	2.r	2.r	2.r	2.f	2.r	8ff
.	.	.	.	.	.	8gg
.	.	.	.	.	.	8ee
.	.	.	.	.	.	8.ff
.	.	.	.	.	.	16ee
.	.	.	.	.	.	8ff
=53	=53	=53	=53	=53	=53	=53
4.E	4.c	4.cc	4.gg	2.e	4.cc	4gg
.	.	.	.	.	.	8cc
4.r	4.r	4.r	4.r	.	4.r	4e
.	.	.	.	.	.	8cc
=54	=54	=54	=54	=54	=54	=54
2.r	2.r	2.r	2.r	4.e	2.r	8gg
.	.	.	.	.	.	8aa
.	.	.	.	.	.	8ff
.	.	.	.	4.c	.	8.gg
.	.	.	.	.	.	16ff
.	.	.	.	.	.	8gg
=55	=55	=55	=55	=55	=55	=55
4.F	4.f	4.cc	4.aa	2.F	4.cc	4aa
.	.	.	.	.	.	8cc
4.r	4.r	4.r	4.r	.	4.r	4f
.	.	.	.	.	.	8cc
=56	=56	=56	=56	=56	=56	=56
2.r	2.r	2.r	2.r	2.f	2.r	8aa
.	.	.	.	.	.	8gg
.	.	.	.	.	.	8ff
.	.	.	.	.	.	8aa
.	.	.	.	.	.	8gg
.	.	.	.	.	.	8ff
=57	=57	=57	=57	=57	=57	=57
4.E	4.c	4.cc	4.gg	4.e	4.cc	8gg
.	.	.	.	.	.	8ff
.	.	.	.	.	.	8ee
4r	4r	4r	4r	4r	4r	8gg
.	.	.	.	.	.	8ff
8E	8cc	8gg	8ee	8E	8gg	8ee
=58	=58	=58	=58	=58	=58	=58
4.F	4.a	8ff	8dd	4.F	8ff	8dd
.	.	8gg	8ee	.	8gg	8ee
.	.	8ee	8cc	.	8ee	8cc
4.G	4r	4.dd	4g	4.G	4.dd	8g
.	.	.	.	.	.	8cc
.	8g	.	8b	.	.	8b
=59	=59	=59	=59	=59	=59	=59
4.C	4.e	4.cc	4.c	4.C	4.cc	4.c
4.r	4.r	4.r	4.r	4.BB-	4.r	4r
.	.	.	.	.	.	8ff
=60	=60	=60	=60	=60	=60	=60
2.r	2.r	2.r	2.r	2.AA	2.r	4ff
.	.	.	.	.	.	8cc
.	.	.	.	.	.	4f
.	.	.	.	.	.	8ee-
=61	=61	=61	=61	=61	=61	=61
4.B-	4.f	4.f	4.ee-	2.BB-	4.f	4.ee-
4.BB-	4.f	4.b-	4.dd	.	4.b-	4dd
.	.	.	.	.	.	8gg
=62	=62	=62	=62	=62	=62	=62
2.r	2.r	2.r	2.r	2.BB	2.r	4gg
.	.	.	.	.	.	8dd
.	.	.	.	.	.	4g
.	.	.	.	.	.	8ff
=63	=63	=63	=63	=63	=63	=63
4.c	4.g	4.g	4.ff	2.C	4.g	4.ff
4.C	4.g	4.cc	4.ee	.	4.cc	4ee
.	.	.	.	.	.	8aa
=64	=64	=64	=64	=64	=64	=64
2.r	2.r	2.r	2.r	2.C#	2.r	4aa
.	.	.	.	.	.	8ee
.	.	.	.	.	.	4a
.	.	.	.	.	.	8gg
=65	=65	=65	=65	=65	=65	=65
4.d	4.a	4.a	4.gg	2.D	4.a	4.gg
4.D	4.a	4.dd	4.ff	.	4.dd	4ff
.	.	.	.	.	.	8bb-
=66	=66	=66	=66	=66	=66	=66
2.r	2.r	2.r	2.r	2.d	2.r	8bb-
.	.	.	.	.	.	8aa
.	.	.	.	.	.	8bb-
.	.	.	.	.	.	4ff
.	.	.	.	.	.	8bb-
=67	=67	=67	=67	=67	=67	=67
4.c#	4.e	4.ee	4.bb-	2.c#	4.ee	4bb-
.	.	.	.	.	.	8ee
4.C#	4.r	4.r	4.ee	.	4.r	4ee
.	.	.	.	.	.	8aa
=68	=68	=68	=68	=68	=68	=68
2.r	2.r	2.r	2.r	2.c	2.r	8aa
.	.	.	.	.	.	8gg
.	.	.	.	.	.	8aa
.	.	.	.	.	.	8ee
.	.	.	.	.	.	8aa
.	.	.	.	.	.	8gg
=69	=69	=69	=69	=69	=69	=69
4.B	4.d	4.dd	4.aa	2.B	4.dd	4aa
.	.	.	.	.	.	8dd
4.BB	4.r	4.r	4.dd	.	4.r	4dd
.	.	.	.	.	.	8gg
=70	=70	=70	=70	=70	=70	=70
2.r	2.r	2.r	2.r	2.B-	2.r	8gg
.	.	.	.	.	.	8ff
.	.	.	.	.	.	8gg
.	.	.	.	.	.	4dd
.	.	.	.	.	.	8gg
=71	=71	=71	=71	=71	=71	=71
4.B-	4.g	4.cc	4.ee	4.B-	4.cc	4.ee
4A	4r	4ff	4.ccc	4A	4ff	4.ccc
8AA	8f	8aa	.	8AA	8aa	.
=72	=72	=72	=72	=72	=72	=72
4BB-	4f	4dd	8aa	4BB-	4dd	8aa
.	.	.	8gg	.	.	8gg
8B-	8d	8bb-	8ff	8B-	8bb-	8ff
4c	4.c	4gg	8cc	4c	4gg	8cc
.	.	.	8ff	.	.	8ff
8C	.	8ccc	8ee	8C	8ccc	8ee
=73	=73	=73	=73	=73	=73	=73
4.F	4.c	4.aa	4.ff	8F	4.aa	4.ff
.	.	.	.	8G	.	.
.	.	.	.	8A	.	.
4.B-	4.r	4.r	4.dd	8B-	4.r	4.dd
.	.	.	.	8c	.	.
.	.	.	.	8d	.	.
=74	=74	=74	=74	=74	=74	=74
4.E	4.e	4.g	4.r	8E	4.g	4.r
.	.	.	.	8F	.	.
.	.	.	.	8G	.	.
4.A	4.r	4.r	4.cc	8A	4.r	4.cc
.	.	.	.	8B-	.	.
.	.	.	.	8c	.	.
=75	=75	=75	=75	=75	=75	=75
4.D	4.f	4.f	4.r	8D	4.f	4.r
.	.	.	.	8E	.	.
.	.	.	.	8F	.	.
4.G	4.r	4.r	4.b-	8G	4.r	4.b-
.	.	.	.	8A	.	.
.	.	.	.	8B-	.	.
=76	=76	=76	=76	=76	=76	=76
4.C	4.g	4.e	4.r	8C	4.e	4.r
.	.	.	.	8D	.	.
.	.	.	.	8E	.	.
4.F	4r	4.cc	8a	8F	4.cc	8a
.	.	.	8b-	8G	.	8b-
.	8a	.	8cc	8A	.	8cc
=77	=77	=77	=77	=77	=77	=77
4.BB-	4g	8b-	8d	8B-	8b-	8d
.	.	8cc	8e	8A	8cc	8e
.	8dd	8a	8f	8B-	8a	8f
4.C	4cc	4g	8c	8c	4g	8c
.	.	.	8f	8B-	.	8f
.	8c	8cc	8e	8c	8cc	8e
=78	=78	=78	=78	=78	=78	=78
4.F	4.c	4.a	4.f	8F	4.a	4.f
.	.	.	.	8G	.	.
.	.	.	.	8A	.	.
4.B-	4.r	4.r	4.dd	8B-	4.r	4.dd
.	.	.	.	8c	.	.
.	.	.	.	8d	.	.
=79	=79	=79	=79	=79	=79	=79
4.E	4.e	4.g	4.r	8E	4.g	4.r
.	.	.	.	8F	.	.
.	.	.	.	8G	.	.
4.A	4.r	4.r	4.cc	8A	4.r	4.cc
.	.	.	.	8B-	.	.
.	.	.	.	8c	.	.
=80	=80	=80	=80	=80	=80	=80
4.D	4.f	4.f	4.r	8D	4.f	4.r
.	.	.	.	8E	.	.
.	.	.	.	8F	.	.
4.G	4.r	4.r	4.b-	8G	4.r	4.b-
.	.	.	.	8A	.	.
.	.	.	.	8B-	.	.
=81	=81	=81	=81	=81	=81	=81
4.C	4.g	4.e	4.r	8C	4.e	4.r
.	.	.	.	8D	.	.
.	.	.	.	8E	.	.
4.F	4r	4.cc	8a	8F	4.cc	8a
.	.	.	8b-	8G	.	8b-
.	8a	.	8cc	8A	.	8cc
=82	=82	=82	=82	=82	=82	=82
4.BB-	4g	8b-	8d	8BB-	8b-	8d
.	.	8cc	8e	8AA	8cc	8e
.	8dd	8a	8f	8BB-	8a	8f
4.C	4cc	4g	8c	8C	4g	8c
.	.	.	8f	8BB-	.	8f
.	8c	8cc	8e	8C	8cc	8e
=83	=83	=83	=83	=83	=83	=83
4.F	4.c	4.a	4.f	4.F	4.a	4.f
4r	4r	4r	4r	4r	4r	4r
8BB-	8d	8b-	8dd	8BB-	8b-	8dd
=84	=84	=84	=84	=84	=84	=84
4C	4G	8b-	4e	4C	8b-	4e
.	.	8cc	.	.	8cc	.
8FF	8A	8a	8f	8FF	8a	8f
4C	4.c	4g	4c	4C	4g	4c
8CC	.	8cc	8e	8CC	8cc	8e
=85	=85	=85	=85	=85	=85	=85
2.FF	2.c	2.a	2.f	2.FF	2.a	2.f
==	==	==	==	==	==	==
*-	*-	*-	*-	*-	*-	*-
!!!RWG: This file only contains pitch and duration data.
!!!RWG: Transposing instruments are not transposed.
!!!RWG: Durations of rests and tied notes may be interpreted.
!!!RWG: Key is interpreted using the Humdrum key tool.
!!!SCA: 
!!!YOR: Chrysander Edition
!!!AGN: concerto grosso
!!!AFT: stage1
!!!ENC: F. Bennion
!!!END: 1997/04/15
!!!AST: baroque
!!!YEC: Copyright 1994, Center for Computer Assisted Research in the Humanities
!!!YEM: Rights to all derivative electronic formats reserved.
!!!YEM: Refer to licensing agreement for further details.
!!!YEN: United States of America
!!!EED: W.B. Hewlett
!!!KEY: 1109278858
!!!EMD: Converted from MuseData to Humdrum Aug 2, 1999, by Bret Aarden using muse2kern.
!!!VTS: 2966447597
